X:36
T: ES BLIES EIN JAEGER WOL IN SEIN HORN
N: E0019B
O: Europa, Mitteleuropa, Deutschland, Schlesien
R: Sage, Maerchen -, Zauber - Lied
M: 4/4
L: 1/8
K: G
D2 | G2G2BABc | d2cBA2z
B | d2cBA2z
A | AAAAAGFG | AGFED2z2 |
G2G2G3B | A2A2A2z
A | BABcd2dc | B2A2G2

@@@ Tune index: 3686
